libs/ui/packages/crypto-icons/src/svg/PIVX.svg

<svg width="24" height="24" viewBox="0 0 24 24" fill="none">
<path fill-rule="evenodd" clip-rule="evenodd" d="M7.5 9.18075H12.1147V10.122H7.5V9.18075ZM16.5 9.62325C16.5 11.8538 14.9175 13.2945 12.729 13.2945H9.6975V18H8.4975V12.2302H12.5662C14.1975 12.2302 15.2625 11.2613 15.2625 9.62325C15.2625 8.00475 14.1975 7.0635 12.585 7.0635H11.319L8.28675 7.07325V6H12.7192C14.9167 6 16.4993 7.39275 16.4993 9.62325H16.5Z" fill="#5E4778"/>
</svg>

<svg width="24" height="24" viewBox="0 0 24 24" fill="none"><path fill="#5e4778" fill-rule="evenodd" d="M7.5 9.18h4.615v.942H7.5zm9 .443c0 2.23-1.582 3.672-3.771 3.672H9.698V18h-1.2v-5.77h4.068c1.631 0 2.696-.969 2.696-2.607 0-1.618-1.065-2.56-2.677-2.56h-1.266l-3.032.01V6h4.432c2.198 0 3.78 1.393 3.78 3.623z" clip-rule="evenodd"/></svg>
